Obsidian-SemiLight/actions/16s/gtk-convert.svg

<svg viewBox="0 0 16 16" xmlns="http://www.w3.org/2000/svg"><path d="m8 2a6 6.00001 0 0 0 -5.914062 5h1.016062a5 5 0 0 1 4.898-4 5 5 0 0 1 4.572266 3h-3.572266v1h5v-5h-1v2.699a6 6.00001 0 0 0 -5-2.699m-6 7v5h1v-2.699a6 6.00001 0 0 0 5 2.699 6 6.00001 0 0 0 5.914062-5h-1.016062a5 5 0 0 1 -4.898 4 5 5 0 0 1 -4.572266-3h3.572266v-1h-4.91z" fill="#4d4d4d"/></svg>

<svg xmlns="http://www.w3.org/2000/svg" viewBox="0 0 16 16">
  <defs id="defs3051">
    <style type="text/css" id="current-color-scheme">
      .ColorScheme-Text {
        color:#4d4d4d;
      }
      </style>
  </defs>
 <path style="fill:currentColor;fill-opacity:1;stroke:none" 
     d="M8 2A6 6.00001 0 0 0 2.085938 7H3.102A5 5 0 0 1 8 3 5 5 0 0 1 12.572266 6H9V7H14V2H13V4.699A6 6.00001 0 0 0 8 2M2 9V14H3V11.301A6 6.00001 0 0 0 8 14 6 6.00001 0 0 0 13.914062 9H12.898A5 5 0 0 1 8 13 5 5 0 0 1 3.427734 10H7V9H2.09z"
     class="ColorScheme-Text"
     />
</svg>
